!!!!SEGMENT: pl-sa--381--a-viii-21--010_anonim--ciebie-bolze-wychwalamy.krn
!!!cenid: 18xx:1316
!!!COM: Anonim
!!!COM-rismid: pe30004985
!!!CDT:
!!!CNT:
!!!OTL: Ciebie Boże wychwalamy
!!!PDT:
!!!AGN: Sacred
!!!SMS-siglum: PL-SA
!!!SMS-shelfmark: 381/ A VIII 21
!!!SMS-shelfwork: 005 W
!!!SMS-variant:
!!!SMS-altvar:
!!!NIFC-rismid: 1001106436
!!!URL-scan: http://bc.bdsandomierz.pl/dlibra/publication/1685/edition/1653/content
!!!ONB-nifc: UWAGA: str. 11. Utwory w zbiorze: 1. Kyrie, 2. Gloria, 3. Credo, 4. Przyjmij Boże tę ofiarę, 5. Sanctus, 6. Aniele stróżu duszy, 7. Agnus Dei, 8. Dona nobis, 9. Boże cesarza chroń, 10. Ciebie Boże wychwalamy, 11. Chwałę Panu wdzięcznym pieniem
!!!key: D
!!!OMD: Andantino
**kern	**text	**text	**dynam
*part1	*part1	*part1	*part1
*staff1	*staff1	*staff1	*
*ICvox	*	*	*
*Ivox	*	*	*
*I"	*	*	*
*>[A,A,B]	*>[A,A,B]	*>[A,A,B]	*>[A,A,B]
*>A	*>A	*>A	*>A
*clefG2	*	*	*
*k[f#c#]	*	*	*
*D:	*	*	*
*M2/4	*	*	*
*	*verse2	*verse1	*
=1	=1	=1	=1
*	*v:2 	*v:1 	*
4dd/	Cie-	Cie-	.
4a/	-bie	-bie	.
=2	=2	=2	=2
4b/	Oj-	Bo-	.
4a/	-cze	-że	.
=3	=3	=3	=3
4g/	o-	wy-	.
8g/L	-krąg	-chwa-	.
8a/J	.	.	.
=4	=4	=4	=4
4g/	ziem-	-la-	.
8f#/	-ski	-my	.
8r	.	.	.
=5	=5	=5	=5
4e/	czci	Cie-	.
4a/	u-	-bie	.
!!LO:LB:g=original
=6	=6	=6	=6
4cc#/	-kło-	Pa-	.
8b/	.	-nie	.
8a/	-ny	.	.
=7	=7	=7	=7
(>4b/	głę-	wy-	.
8f#/)	.	-zna-	.
8g#X/	-bo-	.	.
=8	=8	=8	=8
4b/	-kie-	-wa-	.
8a/	-mi	-my	.
8r	.	.	.
=9:|!	=9:|!	=9:|!	=9:|!
*>B	*>B	*>B	*>B
4r	.	.	.
8ryy	.	.	.
8a/	A-	.	.
=10	=10	=10	=10
4a/	-nie-	.	.
4g/	-li	.	.
=11	=11	=11	=11
8r	.	.	.
4a/	ci	.	.
8dd\	u-	.	.
!!LO:LB:g=original
=12	=12	=12	=12
4.cc#\	-słu-	.	.
16dd/LL	-gu-	.	.
16ee/JJ	.	.	.
=13	=13	=13	=13
4dd/	-ją	.	.
4r	.	.	.
=14	=14	=14	=14
8.dd/L	Swię-	.	.
16a/Jk	.	.	.
8a;/	-ty	.	.
8r	.	.	.
=15	=15	=15	=15
8.dd/L	Swię-	.	.
16b/Jk	.	.	.
8b;/	-ty	.	.
8r	.	.	.
!!LO:LB:g=original
=16	=16	=16	=16
4a/	wy-	.	.
8.g/L	-spie-	.	.
16a^>/Jk	.	.	.
=17	=17	=17	=17
4g/	-wu-	.	.
8f#/	-ją	.	.
8r	.	.	.
=18	=18	=18	=18
8.dd/L	Swię-	.	.
16a/Jk	.	.	.
8a;/	-ty	.	.
8r	.	.	.
=19	=19	=19	=19
8.dd/L	Swię-	.	.
16b/Jk	.	.	.
8b;/	-ty	.	.
8r	.	.	.
=20	=20	=20	=20
!	!	!	!LO:HP:a
4a/	wy-	.	<
8b/L	-spie-	.	[
8cc#/J	.	.	.
=21	=21	=21	=21
4.cc#\	-wu-	.	.
8dd\	.	.	.
=22	=22	=22	=22
4dd\	-ją	.	.
4r	.	.	.
==	==	==	==
*-	*-	*-	*-
!!!system-decoration: *
!!!RDF**kern: > = above
!!!RDF**kern: < = below
!!!AIN: 1 vox
!!!ENC: Kamil Watkowski
!!!END: 2020-12-08
!!!ENC: Andrzej Kubiczek
!!!END: 2022-01-07
